app/img/services-img5.svg

<svg width="130" height="80" viewBox="0 0 130 80" fill="none" xmlns="http://www.w3.org/2000/svg">
<g clip-path="url(#clip0)">
<path d="M72.9769 79.0616C55.8744 82.077 6.20514 76.336 0.510272 44.0386C-3.00511 24.1027 23.9898 8.87701 59.4975 2.61548C95.0052 -3.64606 125.582 1.43086 129.095 21.3668C134.792 53.6616 90.0795 76.0437 72.9769 79.0616Z" fill="#E30613"/>
<path d="M44.6282 38.2102C49.7693 35.3 54.4077 22.4692 45.6436 23.2153C38.1154 23.8564 36.318 36.7923 36.9103 39.9769C36.418 40.1897 35.8949 40.3666 35.4 40.423C35.1641 41.9282 36.2128 42.7692 37.3898 42.9C38.6949 48.6487 42.2462 55.2051 47.5616 53.2846C53.7898 51.0333 52.5949 38.5179 44.6282 38.2102ZM45.0257 27.8102C47.8846 24.441 48.4052 26.8564 48.2872 28.0077C47.9359 31.4641 44.8667 36.4205 41.3462 37.6871C41.3564 34.9333 42.8359 30.3923 45.0257 27.8102ZM46.6026 51.7435C43.7359 50.6077 40.2359 41.4871 43.0744 40.2641C45.4898 39.2205 49.4077 46.3256 46.6026 51.7435ZM109.992 25.8948C109.787 26.5128 109.495 27.123 109.067 27.6153C108.538 26.5025 107.177 25.6871 105.892 25.723C99.7846 25.8923 98.1821 32.3179 98.7154 37.6282C98.8103 40.1512 98.1052 41.9025 96.9 42.8948C94.4154 41.2179 93.1334 37.2487 91.4744 36.3666C93.1462 34.4846 94.3795 32.3102 94.5693 30.7359C94.9539 27.541 91.6975 25.4461 89.7641 27.1615C90.8231 31.1615 89.3975 35.9307 85.7795 37.9897C85.2949 34.9333 85.4821 32.5102 85.8026 30.3282C86.1231 28.1461 83.7077 25.8333 81.2487 27.2769C80.859 28.6564 80.9975 34.4051 81.4795 38.5307C81.3744 41.2897 80.6539 43.9692 78.5257 44.6769C75.541 42.1077 76.4718 35.4051 75.6436 31.9666C74.8821 28.8102 70.7257 26.7333 68.9462 29.4718C70.7744 35.4897 70.3359 43.1077 68.0513 46.282C66.4385 45.7512 66.277 44.1179 66.0616 42.3461C65.8282 40.4307 62.5436 39.5512 61.4257 41.7102C62.318 44.6128 61.1462 47.1743 58.8949 48.2205C57.8103 47.0077 56.7872 45.2205 56.5231 43.1384C58.8 42.6589 61.9667 38.5051 62.1487 35.1666C62.4667 29.3179 55.9898 28.5205 53.2898 33.3923C52.0052 35.7077 51.541 38.9487 52.059 41.5923C52.841 45.5846 55.8846 50.6718 60.418 49.8769C61.6359 49.6641 63.4231 48.0256 64.4795 46.4102C65.6154 47.6153 67.0334 48.4923 68.8205 48.3153C70.7231 48.1256 71.718 44.0384 72.0795 39.5307C73.7282 44.0077 76.459 47.3025 79.018 46.8102C80.4923 46.5256 81.6334 44.9923 82.4257 43.3102C83.559 46.1512 85.8641 46.4794 86.9462 45.4615C86.4077 44.0897 86.0846 42.041 85.9026 39.8718C86.918 39.6333 87.8462 39.2384 88.6872 38.7282C89.9564 41.1384 93.9231 45.2641 96.6821 45.2051C98.5667 45.1615 99.6385 43.5461 100.182 41.7718C101.213 43.6743 102.58 44.9435 104.054 44.9025C106.264 44.8384 107.826 42.3871 108.795 39.8384C109.026 42.9512 111.695 45.7871 114.595 44.3846C112.251 40.9256 111.651 34.8384 113.331 30.6487C113.931 29.1487 113.151 25.182 109.992 25.8948ZM57.4487 34.0359C58.4257 31.6871 60.259 32.5666 60.0436 34.6871C59.718 37.9077 58.3052 40.2282 56.3923 41.1923C56.1487 38.4564 56.7487 35.7256 57.4487 34.0359ZM108.328 31.2512C108.467 35.8 106.605 41.1102 104.526 42.282C102.946 39.4153 102.556 34.3589 103.818 30.9512C105.29 26.982 108.246 28.4769 108.328 31.2512ZM33.4975 30.2641C32.9949 28.1794 30.3385 26.182 26.5077 28.2051C27.9744 32.982 29.1616 39.5897 29.0487 45.8743C18.0564 41.982 17.259 31.982 17.259 31.982C17.259 31.982 13.1411 32.5384 13.3769 35.782C13.9923 44.2641 25.3718 47.9153 28.8872 48.8461C28.5257 52.8359 27.5513 56.5461 25.659 59.3692C26.6718 61.0077 29.7769 61.0974 31.0487 58.3384C34.8564 50.0846 35.6334 39.1436 33.4975 30.2641Z" fill="white"/>
</g>
<defs>
<clipPath id="clip0">
<rect width="129.744" height="80" fill="white"/>
</clipPath>
</defs>
</svg>

<svg xmlns="http://www.w3.org/2000/svg" width="130" height="80" fill="none"><g clip-path="url(#a)"><path fill="#E30613" d="M72.977 79.062C55.874 82.077 6.205 76.336.51 44.039-3.005 24.103 23.99 8.877 59.498 2.615c35.507-6.261 66.084-1.184 69.597 18.752 5.697 32.295-39.016 54.677-56.118 57.695Z"/><path fill="#fff" d="M44.628 38.21c5.141-2.91 9.78-15.74 1.016-14.995-7.529.641-9.326 13.577-8.734 16.762-.492.213-1.015.39-1.51.446-.236 1.505.813 2.346 1.99 2.477 1.305 5.749 4.856 12.305 10.172 10.385 6.228-2.252 5.033-14.767-2.934-15.075Zm.398-10.4c2.859-3.369 3.38-.954 3.261.198-.351 3.456-3.42 8.412-6.94 9.68.01-2.755 1.489-7.296 3.679-9.878Zm1.577 23.933c-2.867-1.135-6.367-10.256-3.529-11.479 2.416-1.044 6.334 6.062 3.529 11.48Zm63.389-25.848c-.205.618-.497 1.228-.925 1.72-.529-1.112-1.89-1.928-3.175-1.892-6.107.17-7.71 6.595-7.177 11.905.095 2.523-.61 4.275-1.815 5.267-2.485-1.677-3.767-5.646-5.426-6.528 1.672-1.882 2.905-4.057 3.095-5.631.385-3.195-2.871-5.29-4.805-3.575 1.06 4-.367 8.77-3.984 10.829-.485-3.057-.298-5.48.023-7.662.32-2.182-2.095-4.495-4.554-3.051-.39 1.38-.251 7.128.23 11.254-.105 2.759-.825 5.438-2.953 6.146-2.985-2.57-2.054-9.272-2.882-12.71-.762-3.157-4.918-5.234-6.698-2.495 1.828 6.018 1.39 13.636-.895 16.81-1.612-.53-1.774-2.164-1.99-3.936-.233-1.915-3.517-2.795-4.635-.636.892 2.903-.28 5.464-2.531 6.51-1.085-1.212-2.108-3-2.372-5.082 2.277-.48 5.444-4.633 5.626-7.971.318-5.85-6.16-6.647-8.86-1.775-1.284 2.316-1.748 5.557-1.23 8.2.782 3.993 3.826 9.08 8.359 8.285 1.218-.213 3.005-1.851 4.062-3.467 1.135 1.205 2.553 2.082 4.34 1.905 1.903-.19 2.898-4.277 3.26-8.784 1.648 4.477 4.379 7.772 6.938 7.28 1.474-.285 2.615-1.819 3.408-3.5 1.133 2.84 3.438 3.168 4.52 2.15-.538-1.371-.861-3.42-1.043-5.59a9.569 9.569 0 0 0 2.784-1.143c1.27 2.41 5.236 6.536 7.995 6.477 1.885-.044 2.956-1.659 3.5-3.433 1.031 1.902 2.398 3.172 3.872 3.13 2.21-.064 3.772-2.515 4.741-5.064.231 3.113 2.9 5.95 5.8 4.547-2.344-3.46-2.944-9.547-1.264-13.736.6-1.5-.18-5.467-3.339-4.754Zm-52.543 8.14c.977-2.348 2.81-1.468 2.595.652-.326 3.22-1.739 5.541-3.652 6.505-.243-2.736.357-5.466 1.057-7.156Zm50.879-2.784c.139 4.549-1.723 9.86-3.802 11.031-1.58-2.867-1.97-7.923-.708-11.33 1.472-3.97 4.428-2.475 4.51.3Zm-74.83-.987c-.503-2.085-3.16-4.082-6.99-2.059 1.466 4.777 2.654 11.385 2.54 17.67C18.057 41.981 17.26 31.981 17.26 31.981s-4.118.556-3.882 3.8c.615 8.482 11.995 12.133 15.51 13.064-.361 3.99-1.336 7.7-3.228 10.523 1.013 1.639 4.118 1.728 5.39-1.03 3.807-8.254 4.584-19.195 2.449-28.075Z"/></g><defs><clipPath id="a"><path fill="#fff" d="M0 0h129.744v80H0z"/></clipPath></defs></svg>
